images/clock.svg

<svg fill="none" height="13" viewBox="0 0 13 13" width="13" xmlns="http://www.w3.org/2000/svg"><g fill="#fff"><path d="m6.16082.0419922c-3.31242 0-5.994316 2.6882878-5.994316 5.9999978 0 3.31172 2.681896 6.00001 5.994316 6.00001 3.3174 0 6.00568-2.68829 6.00568-6.00001 0-3.31171-2.68828-5.9999978-6.00568-5.9999978zm.00568 10.8000078c-.63039.0002-1.25465-.1238-1.8371-.365-.58244-.2412-1.11167-.59472-1.55742-1.04048-.44576-.44576-.79932-.97498-1.04048-1.55743-.24115-.58244-.36518-1.2067-.365-1.8371-.00018-.6304.12385-1.25465.365-1.8371.24116-.58245.59472-1.11167 1.04048-1.55743.44575-.44575.97498-.79931 1.55742-1.04047.58245-.24116 1.20671-.36518 1.8371-.365.6304-.00018 1.25466.12384 1.8371.365.58245.24116 1.11167.59472 1.55743 1.04047.44577.44576.79927.97498 1.04047 1.55743s.3652 1.2067.365 1.8371c.0002.6304-.1238 1.25466-.365 1.8371-.2412.58245-.5947 1.11167-1.04047 1.55743-.44576.44576-.97498.79928-1.55743 1.04048-.58244.2412-1.2067.3652-1.8371.365z"/><path d="m6.46605 3.04199h-.89964v3.6l3.14982 1.89018.45018-.73846-2.70036-1.60189z"/></g></svg>

<svg width="13" height="13" viewBox="0 0 13 13" fill="none" xmlns="http://www.w3.org/2000/svg">
<path d="M6.16082 0.0419922C2.8484 0.0419922 0.166504 2.73028 0.166504 6.04199C0.166504 9.35371 2.8484 12.042 6.16082 12.042C9.47822 12.042 12.1665 9.35371 12.1665 6.04199C12.1665 2.73028 9.47822 0.0419922 6.16082 0.0419922ZM6.1665 10.842C5.53611 10.8422 4.91185 10.7182 4.3294 10.477C3.74696 10.2358 3.21773 9.88228 2.77198 9.43652C2.32622 8.99076 1.97266 8.46154 1.7315 7.87909C1.49035 7.29665 1.36632 6.67239 1.3665 6.04199C1.36632 5.41159 1.49035 4.78734 1.7315 4.20489C1.97266 3.62244 2.32622 3.09322 2.77198 2.64746C3.21773 2.20171 3.74696 1.84815 4.3294 1.60699C4.91185 1.36583 5.53611 1.24181 6.1665 1.24199C6.7969 1.24181 7.42116 1.36583 8.0036 1.60699C8.58605 1.84815 9.11527 2.20171 9.56103 2.64746C10.0068 3.09322 10.3603 3.62244 10.6015 4.20489C10.8427 4.78734 10.9667 5.41159 10.9665 6.04199C10.9667 6.67239 10.8427 7.29665 10.6015 7.87909C10.3603 8.46154 10.0068 8.99076 9.56103 9.43652C9.11527 9.88228 8.58605 10.2358 8.0036 10.477C7.42116 10.7182 6.7969 10.8422 6.1665 10.842V10.842Z" fill="white"/>
<path d="M6.46605 3.04199H5.56641V6.64199L8.71623 8.53217L9.16641 7.79371L6.46605 6.19182V3.04199Z" fill="white"/>
</svg>
